!!!ONB: MCCC : IJB0067_05 : Extracted Monophonic Melody
!!!COM: Bach, Johann Sebastian
!!!OPR: Cello Suite No.5
!!!OMV: 5
!!!SCT: BWV 1011
!!!ODT: 1717///
**kern
*thru
*staff1
*IP1
*clefF4
*k[b-e-a-]
*c:
*M2/2
*>A
4A
4d
=1
4B-
8c
8A
4B-
8c
8F
=2
4G
8E-
8BB
4C
8B-
8E-
=3
4F
8D
8AA
8BB
8D
4A
=4
4E-
8D
8C
8G
8E-
8d
8A
=5
8B-
8F
8c
8E
8B-
8F
8c
8D
=6
8A
8E-
8B-
8D
8A
8E-
8c
8A
=7
8d
8A-
8e-
8G
8d
8A-
8f
8A
=8
8e
8B-
8f
8e
8d
8c
8B
8A
=9
4B
8c
8A
4B
8d
8B
=10
4c
8d
8B
4c
8f
8d
=11
4e
4A
8c
8B
8A
8F#
=12
2A
*>A
4A
4d
=1
4B-
8c
8A
4B-
8c
8F
=2
4G
8E-
8BB
4C
8B-
8E-
=3
4F
8D
8AA
8BB
8D
4A
=4
4E-
8D
8C
8G
8E-
8d
8A
=5
8B-
8F
8c
8E
8B-
8F
8c
8D
=6
8A
8E-
8B-
8D
8A
8E-
8c
8A
=7
8d
8A-
8e-
8G
8d
8A-
8f
8A
=8
8e
8B-
8f
8e
8d
8c
8B
8A
=9
4B
8c
8A
4B
8d
8B
=10
4c
8d
8B
4c
8f
8d
=11
4e
4A
8c
8B
8A
8F#
=12
2A
*>B
4c
4A
=13
4E
8F
8D
4E
8d
8E
=14
4F
8G
8E
4F
8d
8F
=15
4A
8B-
8F
4A
8d
8A
=16
8c
8B-
8A
8F
8A-
8G
8F
8E-
=17
8D
8AA-
8E-
8C
8D
8AA-
8c
8D
=18
8E-
8GG
8F
8D
8E-
8GG
8c
8E-
=19
8F
8BB-
8G
8E-
8F
8BB-
8c
8F
=20
8B-
8A
8F
8E-
4B-
4A
=21
8F
8E-
8F
8D
4d
4c
=22
8E-
8D
8E-
8C
4D
4B-
=23
8B-
8F
8G
8E-
8G
8F
8E-
8D
=24
2E-
4G
4E-
=25
4c
8d
8B
4c
8d
8A
=26
8c
8B
8A
8F
8B
8A
8c#
8B
=27
8d
8c#
8e
8c#
8d
8E-
8D
8C
=28
8GG
8D
8d
8c#
8f
8G
8A-
8F
=29
8e
8F
8G
8E-
8d
8E-
8F
8D
=30
8d
8c#
8B
8A
8d
8E-
8F
8D
=31
8c
8D
8E-
8C
8A-
8C
8D
8BB
=32
8A
8F
8E-
8D
4C
8E-
8C
=33
4D
8E-
8C
4D
8F
8D
=34
4E-
8F
8D
4E-
8B-
8F
=35
4G
4C
8E-
8D
8GG
8BB
=36
2C
*>B
4c
4A
=13
4E
8F
8D
4E
8d
8E
=14
4F
8G
8E
4F
8d
8F
=15
4A
8B-
8F
4A
8d
8A
=16
8c
8B-
8A
8F
8A-
8G
8F
8E-
=17
8D
8AA-
8E-
8C
8D
8AA-
8c
8D
=18
8E-
8GG
8F
8D
8E-
8GG
8c
8E-
=19
8F
8BB-
8G
8E-
8F
8BB-
8c
8F
=20
8B-
8A
8F
8E-
4B-
4A
=21
8F
8E-
8F
8D
4d
4c
=22
8E-
8D
8E-
8C
4D
4B-
=23
8B-
8F
8G
8E-
8G
8F
8E-
8D
=24
2E-
4G
4E-
=25
4c
8d
8B
4c
8d
8A
=26
8c
8B
8A
8F
8B
8A
8c#
8B
=27
8d
8c#
8e
8c#
8d
8E-
8D
8C
=28
8GG
8D
8d
8c#
8f
8G
8A-
8F
=29
8e
8F
8G
8E-
8d
8E-
8F
8D
=30
8d
8c#
8B
8A
8d
8E-
8F
8D
=31
8c
8D
8E-
8C
8A-
8C
8D
8BB
=32
8A
8F
8E-
8D
4C
8E-
8C
=33
4D
8E-
8C
4D
8F
8D
=34
4E-
8F
8D
4E-
8B-
8F
=35
4G
4C
8E-
8D
8GG
8BB
=36
2C
==
*-
